X:1
T:Beauty is a lovely sweet - Bateson
T:James Gibb editions
T:#
%%score { 1 | 2 } 3
L:1/8
Q:1/4=120
M:4/4
K:F
V:1 treble nm="Soprano I"
V:2 treble 
V:3 treble-8 nm="Alto" snm="A"
V:1
!p!"^Thomas Bateson\n(1575-1630)""^Beauty is a lovely sweet" d3 d d2 f2 | B2 c2 d2 d!courtesy!=e | %2
w: Beau- ty is a|love- ly sweet, Where pure|
 f2 d2 c2 d2 |[M:4/4] _e2 d2 B2 c2 | d4 z2 AB | c3 B A2 A2 | =B4 z4 |!mf! d3 d d2 f2 | %8
w: white and crim- son|meet, and crim- son|meet, where pure|white and crim- son|meet.|Beau- ty is a|
 B2 c2 d2 d!courtesy!=e | f2 d2 c2 d2 | _e2 d2 B2 c2 | d4 z2 AB | c3 B A2 A2 | =B4 z4 | %14
w: love- ly sweet, Where pure|white and crim- son|meet, and crim- son|meet, where pure|white and crim- son|meet.|
!p! d3 _e f2 d2 | c3 c d4 | z4 z2 d2- | dA c3 G B2- | B2 A2 G2 g2- | gd f3 c _e2- | eB d3 A (c2- | %21
w: Join'd with fa- vour|of the face,|Chief\-|* est flow'r of fe\-|* male race, chief\-|* est flow'r, oh chief\-|* est flow'r of fe\-|
 c2 B2) A4 | =B2!mf! GA _Bcdc | A z cd _efgf | d4!f! g3 g | ^f4 z2 dc | B4 z2 _ed | c2 B2 A2 A2 | %28
w: * * male|race. But if vir- tue might be|seen, but if vir- tue might be|seen, It would|more, it would|more, it would|more de- light the|
 =B2!p! gf !courtesy!=e4 | z2 f_e d4 | z2 _ed c4- | c2 B2 A2 A2 | =B2!mf! GA _Bcdc | A z cd _efgf | %34
w: eyne, it would more,|it would more,|it would more|* de- light the|eyne. But if vir- tue might be|seen, but if vir- tue might be|
 d4!f! g3 g | ^f4 z2 dc | B4 z2 _ed | c2 B2 A2 A2 | =B2!p! gf !courtesy!=e4 | z2 f_e d4 | %40
w: seen, It would|more, it would|more, it would|more de- light the|eyne, it would more,|it would more,|
 z2[Q:1/4=118] _e[Q:1/4=117]d[Q:1/4=114] c4- | %41
w: it would more|
[Q:1/4=110] c2[Q:1/4=107] B2[Q:1/4=105] A2[Q:1/4=103] A2 |[Q:1/4=102] =B16 |] %43
w: * de- light the|eyne.|
V:2
!p! B3 B A3 B | G2 G2 ^F4 | z4 z2 AB |[M:4/4] c2 (BA) G3 A | B4 z2 FG | A2 G2 G2 ^F2 | G4 z4 | %7
w: Beau- ty is a|love- ly sweet,|Where pure|white and * crim- son|meet, where pure|white and crim- son|meet.|
!mf! B3 B A3 B | G2 G2 ^F4 | z4 z2 AB | c2 (BA) G3 A | B4 z2 FG | A2 G2 G2 ^F2 | G4 z4 | %14
w: Beau- ty is a|love- ly sweet,|Where pure|white and * crim- son|meet, where pure|white and crim- son|meet.|
!p! F2 F2 F2 B2 | B2 A2 B2 B2- | BF A3 E G2- | G2 ^F2 G4 | d3 A c3 G | BB A3 E G2- | GD F3 C (E2- | %21
w: Join'd with fa- vour|of the face, Chief\-|* est flow'r of fe\-|* male race,|chief- est flow'r of|fe- male race, oh chief\-|* est flow'r of fe\-|
 E^F G4) F2 | G4 z2!mf! DE | FGAB c2 GA | Bc d4 c2 | d4 z2!f! BA | G4 z2 cB | A2 G2 G2 ^F2 | %28
w: * * * male|race. But if|vir- tue might be seen, but if|vir- tue might be|seen, it would|more, it would|more de- light the|
 G4 z2!p! cB | A4 z2 BA | G4 z2 AG | ^F2 G2 G2 F2 | G4 z2!mf! DE | FGAB c2 GA | Bc d4 c2 | %35
w: eyne, it would|more, it would|more, it would|more de- light the|eyne. But if|vir- tue might be seen, but if|vir- tue might be|
 d4 z2!f! BA | G4 z2 cB | A2 G2 G2 ^F2 | G4 z2!p! cB | A4 z2 BA | G4 z2 AG | ^F2 G2 G2 F2 | G16 |] %43
w: seen, it would|more, it would|more de- light the|eyne, it would|more, it would|more, it would|more de- light the|eyne.|
V:3
!p! g3 g f3 d | _e2 e2 d4 | z2 d!courtesy!=e f2 d2 |[M:4/4][K:treble-8] c3 d _e4 | z2 Bc d2 d2 | %5
w: Beau- ty is a|love- ly sweet,|Where pure white and|crim- son meet,|where pure white and|
 c4 d4 | G4 z4 |!mf! g3 g f3 d | _e2 e2 d4 | z2 d!courtesy!=e f2 d2 | c3 d _e4 | z2 Bc d2 d2 | %12
w: crim- son|meet.|Beau- ty is a|love- ly sweet,|Where pure white and|crim- son meet,|where pure white and|
 c4 d4 | G4 z4 |!p! B3 c d2 B2 | f2 F2 B4 | d3 A c2 B2 | A2 A2 G2 g2- | gd f3 c_ee | d3 A c3 G | %20
w: crim- son|meet.|Join'd with fa- vour|of the face,|Chief- est flow'r of|fe- male race, chief\-|* est flow'r of fe- male|race, oh chief- est|
 B3 G (A3 E) | (GABc d4) | G4!mf! GABc | de f2 cd_ef | g2 f2 (_e4 | d2)!f! dc B4 | z2 _ed c3 c | %27
w: flow'r of fe\- *|male * * * *|race. But if vir- tue|might be seen, but if vir- tue|might be seen,|* It would more,|it would more de-|
 f2 g2 d4 |!p! G2 G2 c4 | F2 F2 B4 | c2 c2 f2 f_e | d2 d2 d2 D2 | G4!mf! GABc | de f2 cd_ef | %34
w: light the eyne,|it would more,|it would more,|it would more, it would|more de- lght the|eyne. But if vir- tue|might be seen, but if vir- tue|
 g2 f2 (_e4 | d2)!f! dc B4 | z2 _ed c3 c | f2 g2 d4 |!p! G2 G2 c4 | F2 F2 B4 | c2 c2 f2 f_e | %41
w: might be seen,|* It would more,|it would more de-|light the eyne,|it would more,|it would more,|it would more, it would|
 d2 d2 d2 D2 | G16 |] %43
w: more de- lght the|eyne.|

